X: 784
T: Shengli buwang gongchandang
L: 1/16
M: 2/4
K: F
c2 c d f2 e d [I:setbarnb 1]| 
c dc4d2 | 
f2 e d c d A G | 
F6E D | 
G Ac4f2 | 
d c A G F2 E D | 
c c B A G2 A D | 
C8 |]

@@@ Tune index: 9658
